X:1
T:Scotch Contention. TWC.047
T:Scotch Contention. TWC.047
T:Scotch
C:Scotch
L:1/8
Q:1/4=120
M:4/4
K:Emin
V:1 treble 
V:1
"^Allegro" E2 E>F G>AB>G | c>AB>G c>AB>G | E2 E>F G>AB>G | c>AB>G E2 e :: f | g>fg>e d>BG>B | %6
 c>eA>e c>eA>f | g>fg>e d>BG>B | c>AB>G E2 e2 :| %9

